justvector/ming.svg

<?xml version="1.0" encoding="iso-8859-1"?>
<!-- Generator: Adobe Illustrator 15.0.0, SVG Export Plug-In . SVG Version: 6.00 Build 0)  -->
<!DOCTYPE svg PUBLIC "-//W3C//DTD SVG 1.1//EN" "http://www.w3.org/Graphics/SVG/1.1/DTD/svg11.dtd">
<svg version="1.1" id="Layer_1" xmlns="http://www.w3.org/2000/svg" xmlns:xlink="http://www.w3.org/1999/xlink" x="0px" y="0px"
	 width="100px" height="100px" viewBox="0 0 100 100" style="enable-background:new 0 0 100 100;" xml:space="preserve">
<path id="Ning" d="M82.406,65.79c0-3.447,2.821-6.243,6.299-6.243c3.48,0,6.297,2.796,6.297,6.243s-2.816,6.243-6.297,6.243
	C85.228,72.033,82.406,69.237,82.406,65.79z M88.705,39.928c3.48,0,6.297-2.796,6.297-6.242c0-3.447-2.816-6.243-6.297-6.243
	c-3.478,0-6.299,2.796-6.299,6.243C82.406,37.132,85.228,39.928,88.705,39.928z M64.83,41.229c0,3.448,2.817,6.242,6.298,6.242
	c3.478,0,6.298-2.794,6.298-6.242c0-3.447-2.82-6.243-6.298-6.243C67.647,34.985,64.83,37.781,64.83,41.229z M33.603,82.514
	c-3.478,0-6.298,2.796-6.298,6.243S30.125,95,33.603,95s6.298-2.796,6.298-6.243S37.08,82.514,33.603,82.514z M58.529,34.985
	c3.48,0,6.301-2.796,6.301-6.243S62.01,22.5,58.529,22.5c-3.477,0-6.297,2.795-6.297,6.242S55.053,34.985,58.529,34.985z
	 M71.128,52.153c-3.48,0-6.298,2.796-6.298,6.243s2.817,6.242,6.298,6.242c3.478,0,6.298-2.795,6.298-6.242
	S74.605,52.153,71.128,52.153z M41.476,64.639c-3.478,0-6.298,2.796-6.298,6.243s2.82,6.242,6.298,6.242s6.298-2.795,6.298-6.242
	S44.953,64.639,41.476,64.639z M66.327,82.514c-3.478,0-6.298,2.796-6.298,6.243S62.85,95,66.327,95s6.298-2.796,6.298-6.243
	S69.805,82.514,66.327,82.514z M66.327,17.485c3.478,0,6.298-2.796,6.298-6.243c0-3.447-2.82-6.243-6.298-6.243
	s-6.298,2.796-6.298,6.243C60.029,14.689,62.85,17.485,66.327,17.485z M28.88,64.639c3.478,0,6.298-2.795,6.298-6.242
	s-2.82-6.243-6.298-6.243s-6.296,2.796-6.296,6.243S25.402,64.639,28.88,64.639z M11.3,39.928c3.478,0,6.298-2.796,6.298-6.242
	c0-3.447-2.82-6.243-6.298-6.243s-6.298,2.796-6.298,6.243C5.002,37.132,7.822,39.928,11.3,39.928z M11.3,72.033
	c3.478,0,6.298-2.796,6.298-6.243s-2.82-6.243-6.298-6.243s-6.298,2.796-6.298,6.243S7.822,72.033,11.3,72.033z M28.88,47.471
	c3.478,0,6.298-2.794,6.298-6.242c0-3.447-2.82-6.243-6.298-6.243s-6.296,2.796-6.296,6.243
	C22.584,44.677,25.402,47.471,28.88,47.471z M58.529,77.124c3.48,0,6.301-2.795,6.301-6.242s-2.82-6.243-6.301-6.243
	c-3.477,0-6.297,2.796-6.297,6.243S55.053,77.124,58.529,77.124z M35.178,28.742c0,3.447,2.82,6.243,6.298,6.243
	s6.298-2.796,6.298-6.243s-2.82-6.242-6.298-6.242S35.178,25.295,35.178,28.742z M33.603,17.485c3.478,0,6.298-2.796,6.298-6.243
	C39.9,7.795,37.08,5,33.603,5s-6.298,2.796-6.298,6.243C27.305,14.689,30.125,17.485,33.603,17.485z"/>
</svg>

<?xml version="1.0" encoding="UTF-8" standalone="no"?>
<!DOCTYPE svg PUBLIC "-//W3C//DTD SVG 1.1//EN" "http://www.w3.org/Graphics/SVG/1.1/DTD/svg11.dtd">
<svg width="100%" height="100%" viewBox="0 0 100 100" version="1.1" xmlns="http://www.w3.org/2000/svg" xmlns:xlink="http://www.w3.org/1999/xlink" xml:space="preserve" xmlns:serif="http://www.serif.com/" style="fill-rule:evenodd;clip-rule:evenodd;stroke-linejoin:round;stroke-miterlimit:2;">
    <path id="Ning" d="M82.406,65.79C82.406,62.343 85.227,59.547 88.705,59.547C92.185,59.547 95.002,62.343 95.002,65.79C95.002,69.237 82.406,69.237 82.406,65.79ZM82.406,33.686C82.406,37.132 95.002,37.132 95.002,33.686C95.002,30.239 92.186,27.443 88.705,27.443C85.227,27.443 82.406,30.239 82.406,33.686ZM64.83,41.229C64.83,44.677 77.426,44.677 77.426,41.229C77.426,37.782 74.606,34.986 71.128,34.986C67.647,34.985 64.83,37.781 64.83,41.229ZM33.603,82.514C30.125,82.514 27.305,85.31 27.305,88.757C27.305,92.204 39.901,92.204 39.901,88.757C39.901,85.31 37.08,82.514 33.603,82.514ZM52.232,28.742C52.232,32.189 64.83,32.189 64.83,28.742C64.83,25.295 62.01,22.5 58.529,22.5C55.052,22.5 52.232,25.295 52.232,28.742ZM71.128,52.153C67.648,52.153 64.83,54.949 64.83,58.396C64.83,61.843 77.426,61.843 77.426,58.396C77.426,54.949 74.605,52.153 71.128,52.153ZM41.476,64.639C37.998,64.639 35.178,67.435 35.178,70.882C35.178,74.329 47.774,74.329 47.774,70.882C47.774,67.435 44.953,64.639 41.476,64.639ZM66.327,82.514C62.849,82.514 60.029,85.31 60.029,88.757C60.029,92.204 72.625,92.204 72.625,88.757C72.625,85.31 69.805,82.514 66.327,82.514ZM60.029,11.242C60.029,14.689 72.625,14.689 72.625,11.242C72.625,7.795 69.805,4.999 66.327,4.999C62.849,4.999 60.029,7.795 60.029,11.242ZM22.584,58.397C22.584,61.844 35.178,61.844 35.178,58.397C35.178,54.95 32.358,52.154 28.88,52.154C25.402,52.154 22.584,54.95 22.584,58.397ZM5.002,33.686C5.002,37.132 17.598,37.132 17.598,33.686C17.598,30.239 14.778,27.443 11.3,27.443C7.822,27.443 5.002,30.239 5.002,33.686ZM5.002,65.79C5.002,69.237 17.598,69.237 17.598,65.79C17.598,62.343 14.778,59.547 11.3,59.547C7.822,59.547 5.002,62.343 5.002,65.79ZM22.584,41.229C22.584,44.677 35.178,44.677 35.178,41.229C35.178,37.782 32.358,34.986 28.88,34.986C25.402,34.986 22.584,37.782 22.584,41.229ZM52.232,70.882C52.232,74.329 64.83,74.329 64.83,70.882C64.83,67.435 62.01,64.639 58.529,64.639C55.052,64.639 52.232,67.435 52.232,70.882ZM35.178,28.742C35.178,32.189 47.774,32.189 47.774,28.742C47.774,25.295 44.954,22.5 41.476,22.5C37.998,22.5 35.178,25.295 35.178,28.742ZM27.305,11.243C27.305,14.689 39.901,14.689 39.901,11.242C39.9,7.795 37.08,5 33.603,5C30.126,5 27.305,7.796 27.305,11.243Z" style="fill-rule:nonzero;"/>
</svg>
